X:1
T:Navicella
T:Navicella
T:Gio.Girolamo Kapsperger
C:Gio.Girolamo Kapsperger
%%score [ 1 2 ] { ( 3 5 ) | 4 }
L:1/8
Q:1/4=120
M:4/4
K:C
V:1 treble nm="Soprano" snm="S"
V:2 bass nm="Bass" snm="B"
V:3 treble nm="BC" snm="BC"
V:5 treble 
V:4 bass 
V:1
 z2 Bc d3 e | e3 d e2 d2- | d2 ff e3 d | c3 d d2 c2- | c2 GA B3 B | c3 d e2 e2 | c2 d2 ed Bc | %7
w: Na- vi- cel- la|che'a bel ven- to,|_ por- gi fe- d'e|la- sc'il li- do,|_ non tal- let- t'in|ma- re'in- fi- do,|bel sen- tier _ d'ac- *|
w: Non fai tu co-|me re- pen- te,|_ can- gia fe vo-|lu- bil on- da,|_ e che spes- so'au-|ra gio- con- da,|fal- si'hor- ror _ d'au- *|
w: S'a tur- bar l'in-|sta- bil cam- po,|_ vien al Ciel pro-|cel- la'os- cu- ra,|_ se co' ven- t'il|mar con- giu- ra,|qual ti sia- _ se- *|
w: Non mi dir che'in|bo- sco'al- pi- no,|_ ti nu- tri- sti'e|d'or ti fre- gi,|_ ri- ve- rir si|fat- ti pre- gi,|non sa mai _ fu- *|
w: Ah che fai ri-|vol- g'in por- to,|_ hor che puoi l'in-|cau- te ve- le,|_ se tri- bu- to'al|mar cru- de- le,|dar non dei _ tuo _|
w: Las- so me che'al|tuo pe- ri- glio,|_ sa por men- te'il|pen- sier mi- o,|_ poi som- mer- so'in|cie- c'o- bli- o,|e per lui _ si _|
 dc A/B/c/B/ A4 | B8 |] %9
w: que _ d'ar- * * * gen-|to.|
w: stro _ fer- * * * men-|te.|
w: cu- * ro _ _ _ scam-|po?|
w: ror _ ma- * * * ri-|no.|
w: le- * gno'ab- * * * sor-|to|
w: bel _ con- * * * si-|glio.|
V:2
 z2 G,A, B,3 C | C3 B, C2 G,2- | G,2 D,D, E,3 E, | F,3 F, G,2 C,2- | C,2 E,^F, G,3 E, | %5
w: Na- vi- cel- la|che'a bel ven- to,|_ por- gi fe- d'e|la sc'il li- do,|_ non- tal- let- t'in|
w: Non fai tu co-|me re- pen- te,|_ can gia fe vo-|lu- bil on- da,|_ e che spes- so'au-|
w: S'a tur- bar l'in-|sta- bil cam- po,|_ vien al Ciel pro-|cel- la'os- cu- ra,|_ se co' ven- t'il|
w: Non mi dir che'in|bo- sco'al- pi- no,|_ ti ni- tri- sti'e|d'or ti fre- gi,|_ ri- ve- rir si|
w: Ah che fai ri-|vol- g'in por- to,|_ hor che puoi l'in-|cau- te ve- le,|_ se tri- bu- to'al|
w: Las- so me che'al|tuo pe- ri- glio,|_ sa por men- te'il|pen- sier mi- o,|_ poi som- mer- so'in|
 A,3 F, E,2 E,2 | A,,2 B,,2 C,D, E,D, | B,,C, D,C, D,4 | G,,8 |] %9
w: ma- re'in- fi- do,|bel sen- tier _ d'ac- *|que _ d'ar _ gen-|to.|
w: ra gio- con- da,|fal- si'hor- ror _ d'au _|stro _ fer- * men-|te.|
w: mar con- giu- ra,|qual ti sia _ se- *|su- * ro _ scam-|po?|
w: fat- ti pre- gi,|non sa mai _ fu- *|ror _ ma- * ri-|no.|
w: mar cru- de- le,|dar non dei _ tuo _|le- * gno'ab- * sor-|to.|
w: cie- c'o- bli- o,|e per lui _ si _|bel _ con- * si-|glio.|
V:3
 [GBd]3 [Ec] [Gd]3 [EG] | [EGc]3 [Gd] [Gc]2 [DB]2- | [DB]2 [FA]2 [Gc]4 | [FAc]4 [DB]2 [EG]2- | %4
 [EG]2 [EG][DA] [GB]2 [EB]2 | [EAc]3 [Ad] [GB]4 | [EAc]2 [DG]2 [EG]2 [EB]2 | [Gd]2 [Bd]2 d4 | %8
 [GBd]8 |] %9
V:4
 G,3 A, B,3 C | C3 B, C2 G,2- | G,2 D,2 E,3 E, | F,3 F, G,2 C,2- | C,2 E,^F, G,3 E, | A,3 F, E,4 | %6
 A,,2 B,,2 C,D, E,D, | B,,C, D,C, [D,A,]4 | G,,8 |] %9
V:5
 x8 | x8 | x8 | x8 | x8 | x8 | x8 | DE G4 ^F2 | x8 |] %9

